client/src/images/rightHand.svg

<svg width="746.278" height="746.277" xmlns="http://www.w3.org/2000/svg">
 <g>
  <title>background</title>
  <rect x="-1" y="-1" width="748.278" height="748.277" id="canvas_background" fill="none"/>
 </g>

 <g>
  <title>Layer 1</title>
  <g id="svg_1" fill="white">
   <path d="m565.52,140.808c-18.1,-2.46 -27.659,12.74 -28.846,29.688l-13.495,134.416c-0.252,6.244 -5.518,11.114 -11.769,10.862c-6.244,-0.245 -11.106,-5.51 -10.861,-11.768l8.186,-240.043c0.598,-16.984 -12.675,-31.234 -29.657,-31.838c-16.984,-0.604 -31.234,12.675 -31.847,29.651l-7.999,238.13c0,5.036 -4.085,9.114 -9.114,9.114c-5.034,0 -9.112,-4.079 -9.112,-9.114l-0.008,-271.147c0,-16.983 -13.776,-30.759 -30.767,-30.759s-30.767,13.775 -30.767,30.759l-0.224,266.091c0,5.719 -4.633,10.322 -10.357,10.351c-8.366,0.043 -10.014,-7.826 -10.014,-7.826c-0.201,-0.816 -10.258,-236.442 -10.258,-236.442c-0.885,-16.969 -15.363,-30.004 -32.325,-29.112c-16.971,0.877 -30.012,15.365 -29.119,32.327l15.919,336.895c1.61,10.121 -5.294,19.623 -15.415,21.234c-10.129,1.611 -19.631,-5.279 -21.242,-15.408l-29.356,-119.524c-4.036,-16.516 -20.688,-26.615 -37.19,-22.587c-16.509,4.042 -26.615,20.695 -22.58,37.197l48.714,199.186c0.899,3.652 70.445,127.939 95.802,133.902l0,69.174c0,22.127 17.935,40.061 40.054,40.061l136.235,0c22.126,0 40.061,-17.934 40.061,-40.061l0,-75.789c35.88,-45.924 49.54,-132.113 50.116,-206.328l17.407,-248.525c1.178,-16.963 -3.57,-30.509 -20.172,-32.767z" id="svg_2" fill="#d3c26b"/>
  </g>
  <g id="svg_3"/>
  <g id="svg_4"/>
  <g id="svg_5"/>
  <g id="svg_6"/>
  <g id="svg_7"/>
  <g id="svg_8"/>
  <g id="svg_9"/>
  <g id="svg_10"/>
  <g id="svg_11"/>
  <g id="svg_12"/>
  <g id="svg_13"/>
  <g id="svg_14"/>
  <g id="svg_15"/>
  <g id="svg_16"/>
  <g id="svg_17"/>
  <g id="svg_33">
   <ellipse fill="#cea4f9" stroke-width="0" stroke-opacity="null" fill-opacity="null" cx="563.13901" cy="165.59163" id="svg_28" rx="24.5" ry="26" stroke="#000"/>
   <path fill="#cea4f9" stroke-width="0" stroke-opacity="null" fill-opacity="null" d="m523.63901,310.59163c15.24434,53 52.84704,13 52.19762,12.40837c0.64942,0.59163 10.81231,-159.40837 10.16289,-160c0.64942,0.59163 -46.09989,-5.40837 -46.74931,-6" id="svg_31" stroke="#000"/>
  </g>
  <g id="svg_34">
   <ellipse fill="#cea4f9" stroke-width="0" stroke-opacity="null" fill-opacity="null" cx="478.13901" cy="66.59163" id="svg_24" rx="30.5" ry="36" stroke="#000"/>
   <path fill="#cea4f9" stroke-width="0" stroke-opacity="null" fill-opacity="null" d="m441.63901,301.59163c24,48 59,5 58.36099,4.40837c0.63901,0.59163 8.63901,-232.40837 8,-233c0.63901,0.59163 -58.36099,-6.40837 -59,-7" id="svg_26" stroke="#000"/>
  </g>
  <g id="svg_35">
   <ellipse stroke="#000" fill="#cea4f9" stroke-width="0" stroke-opacity="null" fill-opacity="null" cx="391.13901" cy="34.59163" id="svg_22" rx="31.5" ry="39"/>
   <path stroke="#000" fill="#cea4f9" stroke-width="0" stroke-opacity="null" fill-opacity="null" d="m361.63901,298.59163c25,50 60,2 59.36099,1.40837c0.63901,0.59163 0.63901,-259.40837 0,-260c0.63901,0.59163 -60.36099,-1.40837 -61,-2" id="svg_23"/>
  </g>
  <g id="svg_36">
   <ellipse stroke="#000" fill="#cea4f9" stroke-width="0" stroke-opacity="null" cx="299.13901" cy="64.59163" id="svg_20" rx="30.5" ry="34"/>
   <path fill="#cea4f9" stroke="#000" stroke-width="0" stroke-opacity="null" fill-opacity="null" d="m280.63901,306.59163l-13.63901,-240.59163l62,5l10,228c0.63901,0.59163 -17.36099,38.59163 -36.36099,28.59163c-19,-10 -17,-10 -22,-21z" id="svg_21"/>
  </g>
  <g id="svg_37">
   <ellipse fill="#cea4f9" stroke-width="0" cx="188.13901" cy="296.09163" id="svg_18" rx="30.5" ry="30.5" stroke="#000"/>
   <path fill="#cea4f9" stroke-width="0" stroke-opacity="null" d="m195.63901,457.40948c65,30.73143 54,-40.97524 53.36099,-41.58129c0.63901,0.60605 -28.36099,-118.22213 -29,-118.82819c0.63901,0.60605 -61.36099,3.6792 -62,3.07314" id="svg_19" stroke="#000"/>
  </g>
 </g>
</svg>

<?xml version="1.0" encoding="UTF-8" standalone="no"?>
<!DOCTYPE svg PUBLIC "-//W3C//DTD SVG 1.1//EN" "http://www.w3.org/Graphics/SVG/1.1/DTD/svg11.dtd">
<svg version="1.1" xmlns="http://www.w3.org/2000/svg" xmlns:xlink="http://www.w3.org/1999/xlink" preserveAspectRatio="xMidYMid meet" viewBox="0 0 640 640" width="640" height="640"><defs><path d="M747.28 -1C747.28 -1 747.28 -1 747.28 -1C747.28 447.97 747.28 697.39 747.28 747.28C747.28 747.28 747.28 747.28 747.28 747.28C298.31 747.28 48.89 747.28 -1 747.28C-1 747.28 -1 747.28 -1 747.28C-1 298.31 -1 48.89 -1 -1C-1 -1 -1 -1 -1 -1C447.97 -1 697.39 -1 747.28 -1Z" id="cxTwzCCB"></path><path d="M536.67 170.5C535.32 183.94 524.53 291.47 523.18 304.91C522.93 311.16 517.66 316.03 511.41 315.77C505.17 315.53 500.3 310.26 500.55 304.01C501.37 280 507.92 87.97 508.73 63.96C509.33 46.98 496.06 32.73 479.08 32.12C462.09 31.52 447.84 44.8 447.23 61.78C446.43 85.59 440.03 276.09 439.23 299.91C439.23 304.94 435.15 309.02 430.12 309.02C425.08 309.02 421.01 304.94 421.01 299.91C421.01 272.79 421 55.87 421 28.76C421 11.78 407.22 -2 390.23 -2C373.24 -2 359.46 11.77 359.46 28.76C359.44 55.37 359.26 268.24 359.24 294.85C359.24 300.57 354.61 305.17 348.88 305.2C340.52 305.24 338.87 297.37 338.87 297.37C338.67 296.56 328.61 60.93 328.61 60.93C327.73 43.96 313.25 30.93 296.29 31.82C279.32 32.7 266.27 47.19 267.17 64.15C268.76 97.84 281.49 367.35 283.09 401.04C284.7 411.16 277.79 420.67 267.67 422.28C257.54 423.89 248.04 417 246.43 406.87C243.49 394.92 220.01 299.3 217.07 287.34C213.04 270.83 196.39 260.73 179.88 264.76C163.37 268.8 153.27 285.45 157.3 301.95C162.17 321.87 201.15 481.22 206.02 501.14C206.92 504.79 276.46 629.08 301.82 635.04C301.82 641.96 301.82 697.3 301.82 704.22C301.82 726.34 319.75 744.28 341.87 744.28C355.5 744.28 464.48 744.28 478.11 744.28C500.23 744.28 518.17 726.34 518.17 704.22C518.17 696.64 518.17 636.01 518.17 628.43C554.05 582.5 567.71 496.31 568.29 422.1C570.03 397.25 583.95 198.43 585.69 173.57C586.87 156.61 582.12 143.07 565.52 140.81C547.42 138.35 537.86 153.55 536.67 170.5Z" id="b1dNUeF3eo"></path><path d="M587.64 165.59C587.64 179.95 576.67 191.59 563.14 191.59C549.61 191.59 538.64 179.95 538.64 165.59C538.64 151.23 549.61 139.59 563.14 139.59C576.67 139.59 587.64 151.23 587.64 165.59Z" id="c1fT60AXlM"></path><path d="M523.64 310.59C538.88 363.59 576.49 323.59 575.84 323C576.49 323.59 586.65 163.59 586 163C586.65 163.59 539.9 157.59 539.25 157" id="a13C2Z4gbc"></path><path d="M508.64 66.59C508.64 86.47 494.98 102.59 478.14 102.59C461.29 102.59 447.64 86.47 447.64 66.59C447.64 46.71 461.29 30.59 478.14 30.59C494.98 30.59 508.64 46.71 508.64 66.59Z" id="hra4R08j0"></path><path d="M441.64 301.59C465.64 349.59 500.64 306.59 500 306C500.64 306.59 508.64 73.59 508 73C508.64 73.59 449.64 66.59 449 66" id="f19XaJ7uFq"></path><path d="M422.64 34.59C422.64 56.13 408.54 73.59 391.14 73.59C373.74 73.59 359.64 56.13 359.64 34.59C359.64 13.05 373.74 -4.41 391.14 -4.41C408.54 -4.41 422.64 13.05 422.64 34.59Z" id="b4I7XluEpj"></path><path d="M361.64 298.59C386.64 348.59 421.64 300.59 421 300C421.64 300.59 421.64 40.59 421 40C421.64 40.59 360.64 38.59 360 38" id="c3UeBOnzg3"></path><path d="M329.64 64.59C329.64 83.37 315.98 98.59 299.14 98.59C282.29 98.59 268.64 83.37 268.64 64.59C268.64 45.81 282.29 30.59 299.14 30.59C315.98 30.59 329.64 45.81 329.64 64.59Z" id="f95B9ddch"></path><path d="M267 66L329 71C335 207.8 338.33 283.8 339 299C339.64 299.59 321.64 337.59 302.64 327.59C283.64 317.59 285.64 317.59 280.64 306.59C278.82 274.51 274.27 194.32 267 66Z" id="blMWhraj"></path><path d="M218.64 296.09C218.64 312.94 204.98 326.59 188.14 326.59C171.29 326.59 157.64 312.94 157.64 296.09C157.64 279.25 171.29 265.59 188.14 265.59C204.98 265.59 218.64 279.25 218.64 296.09Z" id="a8zkhz8lc"></path><path d="M195.64 457.41C260.64 488.14 249.64 416.43 249 415.83C249.64 416.43 220.64 297.61 220 297C220.64 297.61 158.64 300.68 158 300.07" id="a2QuJXw08"></path></defs><g><g><g><use xlink:href="#cxTwzCCB" opacity="1" fill="#000000" fill-opacity="0"></use><g><use xlink:href="#cxTwzCCB" opacity="1" fill-opacity="0" stroke="#000000" stroke-width="1" stroke-opacity="0"></use></g></g><g><use xlink:href="#b1dNUeF3eo" opacity="1" fill="#d3c26b" fill-opacity="1"></use><g><use xlink:href="#b1dNUeF3eo" opacity="1" fill-opacity="0" stroke="#000000" stroke-width="1" stroke-opacity="0"></use></g></g><g><use xlink:href="#c1fT60AXlM" opacity="1" fill="#2d6187" fill-opacity="1"></use><g><use xlink:href="#c1fT60AXlM" opacity="1" fill-opacity="0" stroke="#000000" stroke-width="0" stroke-opacity="1"></use></g></g><g><use xlink:href="#a13C2Z4gbc" opacity="1" fill="#2d6187" fill-opacity="1"></use><g><use xlink:href="#a13C2Z4gbc" opacity="1" fill-opacity="0" stroke="#000000" stroke-width="0" stroke-opacity="1"></use></g></g><g><use xlink:href="#hra4R08j0" opacity="1" fill="#2d6187" fill-opacity="1"></use><g><use xlink:href="#hra4R08j0" opacity="1" fill-opacity="0" stroke="#000000" stroke-width="0" stroke-opacity="1"></use></g></g><g><use xlink:href="#f19XaJ7uFq" opacity="1" fill="#2d6187" fill-opacity="1"></use><g><use xlink:href="#f19XaJ7uFq" opacity="1" fill-opacity="0" stroke="#000000" stroke-width="0" stroke-opacity="1"></use></g></g><g><use xlink:href="#b4I7XluEpj" opacity="1" fill="#2d6187" fill-opacity="1"></use><g><use xlink:href="#b4I7XluEpj" opacity="1" fill-opacity="0" stroke="#000000" stroke-width="0" stroke-opacity="1"></use></g></g><g><use xlink:href="#c3UeBOnzg3" opacity="1" fill="#2d6187" fill-opacity="1"></use><g><use xlink:href="#c3UeBOnzg3" opacity="1" fill-opacity="0" stroke="#000000" stroke-width="0" stroke-opacity="1"></use></g></g><g><use xlink:href="#f95B9ddch" opacity="1" fill="#2d6187" fill-opacity="1"></use><g><use xlink:href="#f95B9ddch" opacity="1" fill-opacity="0" stroke="#000000" stroke-width="0" stroke-opacity="1"></use></g></g><g><use xlink:href="#blMWhraj" opacity="1" fill="#2d6187" fill-opacity="1"></use><g><use xlink:href="#blMWhraj" opacity="1" fill-opacity="0" stroke="#000000" stroke-width="0" stroke-opacity="1"></use></g></g><g><use xlink:href="#a8zkhz8lc" opacity="1" fill="#2d6187" fill-opacity="1"></use><g><use xlink:href="#a8zkhz8lc" opacity="1" fill-opacity="0" stroke="#000000" stroke-width="0" stroke-opacity="1"></use></g></g><g><use xlink:href="#a2QuJXw08" opacity="1" fill="#2d6187" fill-opacity="1"></use><g><use xlink:href="#a2QuJXw08" opacity="1" fill-opacity="0" stroke="#000000" stroke-width="0" stroke-opacity="1"></use></g></g></g></g></svg>
